X: 82
T:Marching to Praetorius
C: "Gavotte" by Pierre Caroubel c. 1600
M:C|
L:1/8
K:G
|: "G"Bcde "D"d2 c2 | "G"B3c B2 G2 | "D"AGAB ABcd | "G"B2 AB G4 :|
"G"B3A GABA | "D"A4 A2 GA | "G"Bcde "C"c2 B2 | "D"A4 A4 |
"G"BABc Bcd2 | B2 AG "D"A2 GA | "G"B2 AG "C"F2 G2 | "D"A4 A4 |
|: "G"d4 "C"e2 c2 | "G"d3c B2 G2 | "G"d4 "C"e2 c2 | "D"dcBA "G"G4 :|

